public/icons/laptop.svg

<svg width="33" height="29" viewBox="0 0 33 29" fill="none" xmlns="http://www.w3.org/2000/svg">
<g clip-path="url(#clip0_656_3755)">
<path d="M12.2313 7.73862C12.4526 6.07311 12.5633 5.24036 12.972 4.6473C13.3315 4.12563 13.8469 3.73116 14.4444 3.52042C15.1236 3.28085 15.9564 3.39153 17.6219 3.61291L23.9661 4.45616C25.6316 4.67753 26.4643 4.78822 27.0574 5.1969C27.5791 5.55639 27.9735 6.0718 28.1843 6.66926C28.4238 7.34849 28.3132 8.18124 28.0918 9.84675L26.7215 20.1561C26.5001 21.8216 26.3894 22.6543 25.9808 23.2474C25.6213 23.7691 25.1059 24.1635 24.5084 24.3743C23.8292 24.6139 22.9964 24.5032 21.3309 24.2818L14.9867 23.4385C13.3212 23.2172 12.4884 23.1065 11.8954 22.6978C11.3737 22.3383 10.9792 21.8229 10.7685 21.2254C10.5289 20.5462 10.6396 19.7135 10.861 18.048L12.2313 7.73862Z" fill="#736AE4" fill-opacity="0.25"/>
<path d="M17.8201 3.63916L23.7678 4.42971L23.6361 5.42099C23.5633 5.96846 23.0605 6.35328 22.513 6.28051L18.5479 5.75348C18.0004 5.68071 17.6156 5.17791 17.6884 4.63044L17.8201 3.63916Z" fill="#736AE4"/>
</g>
<path d="M4 20.4707L4 13.2707C4 11.5905 4 10.7505 4.32698 10.1087C4.6146 9.54425 5.07354 9.0853 5.63803 8.79768C6.27976 8.4707 7.11984 8.4707 8.8 8.4707L15.2 8.4707C16.8802 8.4707 17.7202 8.4707 18.362 8.79768C18.9265 9.0853 19.3854 9.54424 19.673 10.1087C20 10.7505 20 11.5905 20 13.2707V20.4707L4 20.4707Z" fill="#736AE4" fill-opacity="0.25"/>
<path d="M4.66667 24.4707C4.04669 24.4707 3.7367 24.4707 3.48236 24.4026C2.79218 24.2176 2.25308 23.6785 2.06815 22.9883C2 22.734 2 22.424 2 21.804C2 21.494 2 21.3391 2.03407 21.2119C2.12654 20.8668 2.39609 20.5972 2.74118 20.5048C2.86835 20.4707 3.02334 20.4707 3.33333 20.4707L20.6667 20.4707C20.9767 20.4707 21.1317 20.4707 21.2588 20.5048C21.6039 20.5972 21.8735 20.8668 21.9659 21.2119C22 21.3391 22 21.494 22 21.804C22 22.424 22 22.734 21.9319 22.9883C21.7469 23.6785 21.2078 24.2176 20.5176 24.4026C20.2633 24.4707 19.9533 24.4707 19.3333 24.4707L4.66667 24.4707Z" fill="#736AE4"/>
<defs>
<clipPath id="clip0_656_3755">
<rect width="24" height="24" fill="white" transform="translate(9.16211 0.470703) rotate(7.5712)"/>
</clipPath>
</defs>
</svg>

<svg width="33" height="29" fill="none" xmlns="http://www.w3.org/2000/svg"><g clip-path="url(#a)" fill="#736AE4"><path d="M12.231 7.739c.222-1.666.332-2.499.741-3.092a3 3 0 0 1 1.472-1.127c.68-.24 1.512-.128 3.178.093l6.344.843c1.666.222 2.498.332 3.091.74a3 3 0 0 1 1.127 1.473c.24.68.13 1.512-.092 3.178l-1.37 10.31c-.222 1.665-.333 2.497-.741 3.09a3 3 0 0 1-1.473 1.127c-.679.24-1.512.13-3.177-.092l-6.344-.843c-1.666-.222-2.499-.332-3.092-.741a3 3 0 0 1-1.127-1.473c-.24-.679-.128-1.512.093-3.177l1.37-10.31Z" fill-opacity=".25"/><path d="m17.82 3.64 5.948.79-.132.991a1 1 0 0 1-1.123.86l-3.965-.528a1 1 0 0 1-.86-1.123l.132-.99Z"/></g><path d="M4 20.47v-7.2c0-1.68 0-2.52.327-3.161a3 3 0 0 1 1.311-1.311C6.28 8.47 7.12 8.47 8.8 8.47h6.4c1.68 0 2.52 0 3.162.327a3 3 0 0 1 1.311 1.31c.327.643.327 1.482.327 3.163v7.2H4Z" fill="#736AE4" fill-opacity=".25"/><path d="M4.667 24.47c-.62 0-.93 0-1.185-.067a2 2 0 0 1-1.414-1.415C2 22.734 2 22.424 2 21.804c0-.31 0-.465.034-.592a1 1 0 0 1 .707-.707c.127-.034.282-.034.592-.034h17.334c.31 0 .465 0 .592.034a1 1 0 0 1 .707.707c.034.127.034.282.034.592 0 .62 0 .93-.068 1.184a2 2 0 0 1-1.414 1.415c-.255.068-.565.068-1.185.068H4.667Z" fill="#736AE4"/><defs><clipPath id="a"><path fill="#fff" transform="rotate(7.571 1.024 69.47)" d="M0 0h24v24H0z"/></clipPath></defs></svg>
